app/luts/aces_ap0_to_srgb.cube
TITLE "ACES2065-1 (AP0 linear) -> sRGB display (no RRT)"
LUT_3D_SIZE 33
DOMAIN_MIN 0 0 0
DOMAIN_MAX 1 1 1
0.000000 0.000000 0.000000
0.310997 0.000000 0.000000
0.433548 0.000000 0.000000
0.523467 0.000000 0.000000
0.597133 0.000000 0.000000
0.660674 0.000000 0.000000
0.717161 0.000000 0.000000
0.768383 0.000000 0.000000
0.815493 0.000000 0.000000
0.859279 0.000000 0.000000
0.900311 0.000000 0.000000
0.939012 0.000000 0.000000
0.975711 0.000000 0.000000
1.000000 0.000000 0.000000
1.000000 0.000000 0.000000
1.000000 0.000000 0.000000
1.000000 0.000000 0.000000
1.000000 0.000000 0.000000
1.000000 0.000000 0.000000
1.000000 0.000000 0.000000
1.000000 0.000000 0.000000
1.000000 0.000000 0.000000
1.000000 0.000000 0.000000
1.000000 0.000000 0.000000
1.000000 0.000000 0.000000
1.000000 0.000000 0.000000
1.000000 0.000000 0.000000
1.000000 0.000000 0.000000
1.000000 0.000000 0.000000
1.000000 0.000000 0.000000
1.000000 0.000000 0.000000
1.000000 0.000000 0.000000
1.000000 0.000000 0.000000
0.000000 0.229075 0.000000
0.230350 0.203663 0.000000
0.384351 0.174162 0.000000
0.485614 0.138063 0.000000
0.565515 0.088555 0.000000
0.633112 0.000000 0.000000
0.692495 0.000000 0.000000
0.745913 0.000000 0.000000
0.794758 0.000000 0.000000
0.839957 0.000000 0.000000
0.882168 0.000000 0.000000
0.921871 0.000000 0.000000
0.959435 0.000000 0.000000
0.995146 0.000000 0.000000
1.000000 0.000000 0.000000
1.000000 0.000000 0.000000
1.000000 0.000000 0.000000
1.000000 0.000000 0.000000
1.000000 0.000000 0.000000
1.000000 0.000000 0.000000
1.000000 0.000000 0.000000
1.000000 0.000000 0.000000
1.000000 0.000000 0.000000
1.000000 0.000000 0.000000
1.000000 0.000000 0.000000
1.000000 0.000000 0.000000
1.000000 0.000000 0.000000
1.000000 0.000000 0.000000
1.000000 0.000000 0.000000
1.000000 0.000000 0.000000
1.000000 0.000000 0.000000
1.000000 0.000000 0.000000
1.000000 0.000000 0.000000
0.000000 0.324194 0.000000
0.085511 0.307789 0.000000
0.325896 0.290273 0.000000
0.443631 0.271416 0.000000
0.531464 0.250895 0.000000
0.603911 0.228238 0.000000
0.666633 0.202709 0.000000
0.722523 0.173031 0.000000
0.773288 0.136622 0.000000
0.820033 0.086361 0.000000
0.863520 0.000000 0.000000
0.904299 0.000000 0.000000
0.942786 0.000000 0.000000
0.979299 0.000000 0.000000
1.000000 0.000000 0.000000
1.000000 0.000000 0.000000
1.000000 0.000000 0.000000
1.000000 0.000000 0.000000
1.000000 0.000000 0.000000
1.000000 0.000000 0.000000
1.000000 0.000000 0.000000
1.000000 0.000000 0.000000
1.000000 0.000000 0.000000
1.000000 0.000000 0.000000
1.000000 0.000000 0.000000
1.000000 0.000000 0.000000
1.000000 0.000000 0.000000
1.000000 0.000000 0.000000
1.000000 0.000000 0.000000
1.000000 0.000000 0.000000
1.000000 0.000000 0.000000
1.000000 0.000000 0.000000
1.000000 0.000000 0.000000
0.000000 0.393986 0.000000
0.000000 0.381171 0.000000
0.251008 0.367806 0.000000
0.396002 0.353822 0.000000
0.494391 0.339134 0.000000
0.572774 0.323636 0.000000
0.639404 0.307196 0.000000
0.698105 0.289637 0.000000
0.751010 0.270728 0.000000
0.799452 0.250141 0.000000
0.844325 0.227398 0.000000
0.886264 0.201749 0.000000
0.925738 0.171891 0.000000
0.963104 0.135166 0.000000
0.998642 0.084118 0.000000
1.000000 0.000000 0.000000
1.000000 0.000000 0.000000
1.000000 0.000000 0.000000
1.000000 0.000000 0.000000
1.000000 0.000000 0.000000
1.000000 0.000000 0.000000
1.000000 0.000000 0.000000
1.000000 0.000000 0.000000
1.000000 0.000000 0.000000
1.000000 0.000000 0.000000
1.000000 0.000000 0.000000
1.000000 0.000000 0.000000
1.000000 0.000000 0.000000
1.000000 0.000000 0.000000
1.000000 0.000000 0.000000
1.000000 0.000000 0.000000
1.000000 0.000000 0.000000
1.000000 0.000000 0.000000
0.000000 0.451163 0.000000
0.000000 0.440384 0.000000
0.132560 0.429265 0.000000
0.340021 0.417777 0.000000
0.453436 0.405885 0.000000
0.539310 0.393546 0.000000
0.610592 0.380713 0.000000
0.672524 0.367328 0.000000
0.727835 0.353320 0.000000
0.778153 0.338606 0.000000
0.824540 0.323078 0.000000
0.867732 0.306601 0.000000
0.908265 0.289000 0.000000
0.946540 0.270037 0.000000
0.982869 0.249384 0.000000
1.000000 0.226555 0.000000
1.000000 0.200785 0.000000
1.000000 0.170744 0.000000
1.000000 0.133694 0.000000
1.000000 0.081824 0.000000
1.000000 0.000000 0.000000
1.000000 0.000000 0.000000
1.000000 0.000000 0.000000
1.000000 0.000000 0.000000
1.000000 0.000000 0.000000
1.000000 0.000000 0.000000
1.000000 0.000000 0.000000
1.000000 0.000000 0.000000
1.000000 0.000000 0.000000
1.000000 0.000000 0.000000
1.000000 0.000000 0.000000
1.000000 0.000000 0.000000
1.000000 0.000000 0.000000
0.000000 0.500482 0.000000
0.000000 0.491047 0.000000
0.000000 0.481377 0.000000
0.269878 0.471458 0.000000
0.407245 0.461269 0.000000
0.502975 0.450791 0.000000
0.579918 0.440000 0.000000
0.645618 0.428869 0.000000
0.703657 0.417368 0.000000
0.756063 0.405460 0.000000
0.804111 0.393105 0.000000
0.848664 0.380254 0.000000
0.890336 0.366848 0.000000
0.929583 0.352818 0.000000
0.966754 0.338076 0.000000
1.000000 0.322518 0.000000
1.000000 0.306005 0.000000
1.000000 0.288360 0.000000
1.000000 0.269345 0.000000
1.000000 0.248625 0.000000
1.000000 0.225708 0.000000
1.000000 0.199816 0.000000
1.000000 0.169588 0.000000
1.000000 0.132206 0.000000
1.000000 0.079475 0.000000
1.000000 0.000000 0.000000
1.000000 0.000000 0.000000
1.000000 0.000000 0.000000
1.000000 0.000000 0.000000
1.000000 0.000000 0.000000
1.000000 0.000000 0.000000
1.000000 0.000000 0.000000
1.000000 0.000000 0.000000
0.000000 0.544324 0.000000
0.000000 0.535858 0.000000
0.000000 0.527219 0.000000
0.167081 0.518396 0.000000
0.353472 0.509379 0.000000
0.462983 0.500155 0.000000
0.547015 0.490712 0.000000
0.617181 0.481034 0.000000
0.678349 0.471106 0.000000
0.733096 0.460907 0.000000
0.782978 0.450419 0.000000
0.829015 0.439616 0.000000
0.871918 0.428473 0.000000
0.912207 0.416958 0.000000
0.950274 0.405036 0.000000
0.986423 0.392664 0.000000
1.000000 0.379794 0.000000
1.000000 0.366368 0.000000
1.000000 0.352314 0.000000
1.000000 0.337546 0.000000
1.000000 0.321956 0.000000
1.000000 0.305407 0.000000
1.000000 0.287719 0.000000
1.000000 0.268651 0.000000
1.000000 0.247863 0.000000
1.000000 0.224857 0.000000
1.000000 0.198841 0.000000
1.000000 0.168424 0.000000
1.000000 0.130701 0.000000
1.000000 0.077067 0.000000
1.000000 0.000000 0.000000
1.000000 0.000000 0.000000
1.000000 0.000000 0.000000
0.000000 0.584082 0.000000
0.000000 0.576355 0.000000
0.000000 0.568493 0.000000
0.000000 0.560490 0.000000
0.287326 0.552338 0.000000
0.418118 0.544031 0.000000
0.511379 0.535559 0.000000
0.586951 0.526913 0.000000
0.651755 0.518083 0.000000
0.709153 0.509059 0.000000
0.761072 0.499828 0.000000
0.808735 0.490377 0.000000
0.852974 0.480691 0.000000
0.894383 0.470753 0.000000
0.933407 0.460545 0.000000
0.970385 0.450046 0.000000
1.000000 0.439232 0.000000
1.000000 0.428076 0.000000
1.000000 0.416548 0.000000
1.000000 0.404610 0.000000
1.000000 0.392222 0.000000
1.000000 0.379334 0.000000
1.000000 0.365887 0.000000
1.000000 0.351810 0.000000
1.000000 0.337015 0.000000
1.000000 0.321394 0.000000
1.000000 0.304808 0.000000
1.000000 0.287077 0.000000
1.000000 0.267954 0.000000
1.000000 0.247099 0.000000
1.000000 0.224003 0.000000
1.000000 0.197862 0.000000
1.000000 0.167251 0.000000
0.000000 0.620647 0.000000
0.000000 0.613507 0.000000
0.000000 0.606258 0.000000
0.000000 0.598896 0.000000
0.195362 0.591416 0.000000
0.366329 0.583814 0.000000
0.472290 0.576082 0.000000
0.554584 0.568215 0.000000
0.623680 0.560207 0.000000
0.684109 0.552050 0.000000
0.738309 0.543737 0.000000
0.787765 0.535259 0.000000
0.833459 0.526607 0.000000
0.876078 0.517771 0.000000
0.916128 0.508740 0.000000
0.953989 0.499501 0.000000
0.989959 0.490042 0.000000
1.000000 0.480347 0.000000
1.000000 0.470401 0.000000
1.000000 0.460183 0.000000
1.000000 0.449673 0.000000
1.000000 0.438848 0.000000
1.000000 0.427679 0.000000
1.000000 0.416137 0.000000
1.000000 0.404184 0.000000
1.000000 0.391780 0.000000
1.000000 0.378873 0.000000
1.000000 0.365405 0.000000
1.000000 0.351304 0.000000
1.000000 0.336483 0.000000
1.000000 0.320831 0.000000
1.000000 0.304208 0.000000
1.000000 0.286432 0.000000
0.000000 0.654632 0.000000
0.000000 0.647972 0.000000
0.000000 0.641221 0.000000
0.000000 0.634378 0.000000
0.000000 0.627439 0.000000
0.303610 0.620399 0.000000
0.428653 0.613255 0.000000
0.519612 0.606002 0.000000
0.593877 0.598636 0.000000
0.657818 0.591152 0.000000
0.714594 0.583545 0.000000
0.766038 0.575809 0.000000
0.813324 0.567937 0.000000
0.857255 0.559924 0.000000
0.898407 0.551762 0.000000
0.937211 0.543443 0.000000
0.973999 0.534959 0.000000
1.000000 0.526301 0.000000
1.000000 0.517458 0.000000
1.000000 0.508420 0.000000
1.000000 0.499174 0.000000
1.000000 0.489707 0.000000
1.000000 0.480004 0.000000
1.000000 0.470047 0.000000
1.000000 0.459820 0.000000
1.000000 0.449299 0.000000
1.000000 0.438462 0.000000
1.000000 0.427282 0.000000
1.000000 0.415726 0.000000
1.000000 0.403758 0.000000
1.000000 0.391337 0.000000
1.000000 0.378411 0.000000
1.000000 0.364922 0.000000
0.000000 0.686479 0.000000
0.000000 0.680220 0.000000
0.000000 0.673885 0.000000
0.000000 0.667472 0.000000
0.000000 0.660978 0.000000
0.219756 0.654401 0.000000
0.378660 0.647737 0.000000
0.481372 0.640983 0.000000
0.562023 0.634137 0.000000
0.630094 0.627194 0.000000
0.689808 0.620150 0.000000
0.743475 0.613003 0.000000
0.792514 0.605746 0.000000
0.837871 0.598376 0.000000
0.880212 0.590888 0.000000
0.920026 0.583276 0.000000
0.957685 0.575535 0.000000
0.993479 0.567659 0.000000
1.000000 0.559641 0.000000
1.000000 0.551473 0.000000
1.000000 0.543149 0.000000
1.000000 0.534659 0.000000
1.000000 0.525994 0.000000
1.000000 0.517145 0.000000
1.000000 0.508100 0.000000
1.000000 0.498846 0.000000
1.000000 0.489371 0.000000
1.000000 0.479659 0.000000
1.000000 0.469694 0.000000
1.000000 0.459456 0.000000
1.000000 0.448925 0.000000
1.000000 0.438077 0.000000
1.000000 0.426884 0.000000
0.000000 0.716518 0.000000
0.000000 0.710600 0.000000
0.000000 0.704617 0.000000
0.000000 0.698568 0.000000
0.000000 0.692450 0.000000
0.052407 0.686261 0.000000
0.318920 0.679999 0.000000
0.438875 0.673661 0.000000
0.527682 0.667246 0.000000
0.600702 0.660749 0.000000
0.663810 0.654169 0.000000
0.719981 0.647502 0.000000
0.770962 0.640745 0.000000
0.817880 0.633895 0.000000
0.861508 0.626949 0.000000
0.902407 0.619902 0.000000
0.940995 0.612750 0.000000
0.977596 0.605490 0.000000
1.000000 0.598116 0.000000
1.000000 0.590624 0.000000
1.000000 0.583008 0.000000
1.000000 0.575262 0.000000
1.000000 0.567381 0.000000
1.000000 0.559357 0.000000
1.000000 0.551185 0.000000
1.000000 0.542854 0.000000
1.000000 0.534359 0.000000
1.000000 0.525688 0.000000
1.000000 0.516832 0.000000
1.000000 0.507779 0.000000
1.000000 0.498518 0.000000
1.000000 0.489035 0.000000
1.000000 0.479315 0.000000
0.000000 0.745002 0.000000
0.000000 0.739380 0.000000
0.000000 0.733701 0.000000
0.000000 0.727965 0.000000
0.000000 0.722169 0.000000
0.000000 0.716312 0.000000
0.241442 0.710392 0.000000
0.390518 0.704407 0.000000
0.490244 0.698355 0.000000
0.569339 0.692235 0.000000
0.636424 0.686043 0.000000
0.695446 0.679779 0.000000
0.748594 0.673438 0.000000
0.797226 0.667020 0.000000
0.842253 0.660520 0.000000
0.884321 0.653937 0.000000
0.923903 0.647267 0.000000
0.961363 0.640507 0.000000
0.996983 0.633654 0.000000
1.000000 0.626704 0.000000
1.000000 0.619653 0.000000
1.000000 0.612498 0.000000
1.000000 0.605234 0.000000
1.000000 0.597856 0.000000
1.000000 0.590359 0.000000
1.000000 0.582739 0.000000
1.000000 0.574988 0.000000
1.000000 0.567102 0.000000
1.000000 0.559074 0.000000
1.000000 0.550896 0.000000
1.000000 0.542560 0.000000
1.000000 0.534058 0.000000
1.000000 0.525381 0.000000
0.000000 0.772133 0.000000
0.000000 0.766769 0.000000
0.000000 0.761356 0.000000
0.000000 0.755892 0.000000
0.000000 0.750376 0.000000
0.000000 0.744806 0.000000
0.112512 0.739182 0.000000
0.333398 0.733501 0.000000
0.448809 0.727763 0.000000
0.535600 0.721965 0.000000
0.607429 0.716105 0.000000
0.669733 0.710183 0.000000
0.725317 0.704196 0.000000
0.775846 0.698142 0.000000
0.822402 0.692019 0.000000
0.865734 0.685825 0.000000
0.906383 0.679558 0.000000
0.944758 0.673215 0.000000
0.981174 0.666793 0.000000
1.000000 0.660291 0.000000
1.000000 0.653705 0.000000
1.000000 0.647032 0.000000
1.000000 0.640269 0.000000
1.000000 0.633412 0.000000
1.000000 0.626459 0.000000
1.000000 0.619405 0.000000
1.000000 0.612246 0.000000
1.000000 0.604977 0.000000
1.000000 0.597595 0.000000
1.000000 0.590094 0.000000
1.000000 0.582469 0.000000
1.000000 0.574715 0.000000
1.000000 0.566824 0.000000
0.000000 0.798072 0.000000
0.000000 0.792937 0.000000
0.000000 0.787758 0.000000
0.000000 0.782533 0.000000
0.000000 0.777263 0.000000
0.000000 0.771946 0.000000
0.000000 0.766581 0.000000
0.261107 0.761165 0.000000
0.401950 0.755700 0.000000
0.498919 0.750182 0.000000
0.576537 0.744610 0.000000
0.642674 0.738984 0.000000
0.701025 0.733301 0.000000
0.753667 0.727561 0.000000
0.801902 0.721761 0.000000
0.846606 0.715899 0.000000
0.888404 0.709975 0.000000
0.927758 0.703985 0.000000
0.965021 0.697929 0.000000
1.000000 0.691804 0.000000
1.000000 0.685607 0.000000
1.000000 0.679337 0.000000
1.000000 0.672991 0.000000
1.000000 0.666567 0.000000
1.000000 0.660062 0.000000
1.000000 0.653473 0.000000
1.000000 0.646796 0.000000
1.000000 0.640030 0.000000
1.000000 0.633170 0.000000
1.000000 0.626213 0.000000
1.000000 0.619156 0.000000
1.000000 0.611993 0.000000
1.000000 0.604721 0.000000
0.000000 0.822951 0.000000
0.000000 0.818020 0.000000
0.000000 0.813049 0.000000
0.000000 0.808039 0.000000
0.000000 0.802987 0.000000
0.000000 0.797893 0.000000
0.000000 0.792756 0.000000
0.151682 0.787575 0.000000
0.347158 0.782350 0.000000
0.458477 0.777078 0.000000
0.543371 0.771759 0.000000
0.614061 0.766392 0.000000
0.675589 0.760975 0.000000
0.730602 0.755507 0.000000
0.780690 0.749988 0.000000
0.826892 0.744414 0.000000
0.869932 0.738786 0.000000
0.910337 0.733101 0.000000
0.948502 0.727359 0.000000
0.984736 0.721556 0.000000
1.000000 0.715693 0.000000
1.000000 0.709766 0.000000
1.000000 0.703774 0.000000
1.000000 0.697716 0.000000
1.000000 0.691588 0.000000
1.000000 0.685389 0.000000
1.000000 0.679116 0.000000
1.000000 0.672768 0.000000
1.000000 0.666341 0.000000
1.000000 0.659833 0.000000
1.000000 0.653240 0.000000
1.000000 0.646561 0.000000
1.000000 0.639792 0.000000
0.000000 0.846880 0.000000
0.000000 0.842133 0.000000
0.000000 0.837349 0.000000
0.000000 0.832530 0.000000
0.000000 0.827673 0.000000
0.000000 0.822779 0.000000
0.000000 0.817847 0.000000
0.000000 0.812875 0.000000
0.279193 0.807862 0.000000
0.412995 0.802809 0.000000
0.507407 0.797714 0.000000
0.583622 0.792576 0.000000
0.648847 0.787393 0.000000
0.706548 0.782166 0.000000
0.758697 0.776893 0.000000
0.806542 0.771572 0.000000
0.850929 0.766203 0.000000
0.892463 0.760784 0.000000
0.931593 0.755315 0.000000
0.968662 0.749793 0.000000
1.000000 0.744218 0.000000
1.000000 0.738588 0.000000
1.000000 0.732901 0.000000
1.000000 0.727157 0.000000
1.000000 0.721352 0.000000
1.000000 0.715486 0.000000
1.000000 0.709557 0.000000
1.000000 0.703563 0.000000
1.000000 0.697502 0.000000
1.000000 0.691372 0.000000
1.000000 0.685170 0.000000
1.000000 0.678895 0.000000
1.000000 0.672544 0.000000
0.000000 0.869952 0.000000
0.000000 0.865370 0.000000
0.000000 0.860756 0.000000
0.000000 0.856110 0.000000
0.000000 0.851429 0.000000
0.000000 0.846715 0.000000
0.000000 0.841966 0.000000
0.000000 0.837181 0.000000
0.182510 0.832360 0.000000
0.360289 0.827503 0.000000
0.467896 0.822607 0.000000
0.551003 0.817673 0.000000
0.620602 0.812700 0.000000
0.681380 0.807686 0.000000
0.735838 0.802631 0.000000
0.785495 0.797535 0.000000
0.831351 0.792395 0.000000
0.874105 0.787211 0.000000
0.914268 0.781982 0.000000
0.952226 0.776707 0.000000
0.988281 0.771385 0.000000
1.000000 0.766014 0.000000
1.000000 0.760594 0.000000
1.000000 0.755122 0.000000
1.000000 0.749599 0.000000
1.000000 0.744022 0.000000
1.000000 0.738390 0.000000
1.000000 0.732701 0.000000
1.000000 0.726954 0.000000
1.000000 0.721148 0.000000
1.000000 0.715280 0.000000
1.000000 0.709349 0.000000
1.000000 0.703352 0.000000
0.000000 0.892245 0.000000
0.000000 0.887815 0.000000
0.000000 0.883354 0.000000
0.000000 0.878864 0.000000
0.000000 0.874344 0.000000
0.000000 0.869793 0.000000
0.000000 0.865209 0.000000
0.000000 0.860594 0.000000
0.000000 0.855946 0.000000
0.296003 0.851265 0.000000
0.423687 0.846549 0.000000
0.515720 0.841799 0.000000
0.590599 0.837013 0.000000
0.654946 0.832191 0.000000
0.712015 0.827332 0.000000
0.763683 0.822435 0.000000
0.811147 0.817500 0.000000
0.855224 0.812525 0.000000
0.896498 0.807510 0.000000
0.935406 0.802454 0.000000
0.972284 0.797355 0.000000
1.000000 0.792214 0.000000
1.000000 0.787029 0.000000
1.000000 0.781798 0.000000
1.000000 0.776522 0.000000
1.000000 0.771198 0.000000
1.000000 0.765825 0.000000
1.000000 0.760403 0.000000
1.000000 0.754930 0.000000
1.000000 0.749405 0.000000
1.000000 0.743826 0.000000
1.000000 0.738192 0.000000
1.000000 0.732501 0.000000
0.000000 0.913827 0.000000
0.000000 0.909535 0.000000
0.000000 0.905215 0.000000
0.000000 0.900868 0.000000
0.000000 0.896494 0.000000
0.000000 0.892091 0.000000
0.000000 0.887659 0.000000
0.000000 0.883198 0.000000
0.000000 0.878707 0.000000
0.208557 0.874185 0.000000
0.372862 0.869633 0.000000
0.477083 0.865048 0.000000
0.558504 0.860432 0.000000
0.627056 0.855783 0.000000
0.687107 0.851100 0.000000
0.741026 0.846383 0.000000
0.790262 0.841632 0.000000
0.835778 0.836845 0.000000
0.878251 0.832021 0.000000
0.918176 0.827161 0.000000
0.955931 0.822263 0.000000
0.991808 0.817326 0.000000
1.000000 0.812350 0.000000
1.000000 0.807334 0.000000
1.000000 0.802276 0.000000
1.000000 0.797176 0.000000
1.000000 0.792033 0.000000
1.000000 0.786846 0.000000
1.000000 0.781614 0.000000
1.000000 0.776336 0.000000
1.000000 0.771010 0.000000
1.000000 0.765636 0.000000
1.000000 0.760212 0.000000
0.000000 0.934756 0.000000
0.000000 0.930591 0.000000
0.000000 0.926401 0.000000
0.000000 0.922185 0.000000
0.000000 0.917944 0.000000
0.000000 0.913677 0.000000
0.000000 0.909384 0.000000
0.000000 0.905064 0.000000
0.000000 0.900716 0.000000
0.005069 0.896340 0.000000
0.311756 0.891936 0.000000
0.434054 0.887503 0.000000
0.523867 0.883041 0.000000
0.597471 0.878549 0.000000
0.660971 0.874026 0.000000
0.717427 0.869473 0.000000
0.768627 0.864887 0.000000
0.815719 0.860270 0.000000
0.859490 0.855619 0.000000
0.900509 0.850936 0.000000
0.939199 0.846218 0.000000
0.975889 0.841465 0.000000
1.000000 0.836676 0.000000
1.000000 0.831852 0.000000
1.000000 0.826990 0.000000
1.000000 0.822091 0.000000
1.000000 0.817153 0.000000
1.000000 0.812175 0.000000
1.000000 0.807157 0.000000
1.000000 0.802098 0.000000
1.000000 0.796997 0.000000
1.000000 0.791852 0.000000
1.000000 0.786664 0.000000
0.000000 0.955083 0.000000
0.000000 0.951035 0.000000
0.000000 0.946964 0.000000
0.000000 0.942870 0.000000
0.000000 0.938752 0.000000
0.000000 0.934611 0.000000
0.000000 0.930444 0.000000
0.000000 0.926253 0.000000
0.000000 0.922037 0.000000
0.000000 0.917795 0.000000
0.231423 0.913527 0.000000
0.384939 0.909233 0.000000
0.486054 0.904912 0.000000
0.565878 0.900563 0.000000
0.633426 0.896186 0.000000
0.692774 0.891781 0.000000
0.746167 0.887348 0.000000
0.794991 0.882884 0.000000
0.840175 0.878391 0.000000
0.882371 0.873867 0.000000
0.922063 0.869313 0.000000
0.959617 0.864726 0.000000
0.995320 0.860108 0.000000
1.000000 0.855456 0.000000
1.000000 0.850771 0.000000
1.000000 0.846052 0.000000
1.000000 0.841298 0.000000
1.000000 0.836508 0.000000
1.000000 0.831682 0.000000
1.000000 0.826819 0.000000
1.000000 0.821918 0.000000
1.000000 0.816979 0.000000
1.000000 0.812000 0.000000
0.000000 0.974853 0.000000
0.000000 0.970914 0.000000
0.000000 0.966953 0.000000
0.000000 0.962972 0.000000
0.000000 0.958968 0.000000
0.000000 0.954942 0.000000
0.000000 0.950893 0.000000
0.000000 0.946821 0.000000
0.000000 0.942726 0.000000
0.000000 0.938608 0.000000
0.088371 0.934465 0.000000
0.326613 0.930298 0.000000
0.444123 0.926106 0.000000
0.531856 0.921889 0.000000
0.604244 0.917646 0.000000
0.666927 0.913378 0.000000
0.722788 0.909082 0.000000
0.773530 0.904760 0.000000
0.820257 0.900410 0.000000
0.863729 0.896033 0.000000
0.904496 0.891627 0.000000
0.942972 0.887192 0.000000
0.979476 0.882727 0.000000
1.000000 0.878233 0.000000
1.000000 0.873708 0.000000
1.000000 0.869153 0.000000
1.000000 0.864565 0.000000
1.000000 0.859945 0.000000
1.000000 0.855293 0.000000
1.000000 0.850606 0.000000
1.000000 0.845886 0.000000
1.000000 0.841131 0.000000
1.000000 0.836340 0.000000
0.000000 0.994105 0.000000
0.000000 0.990267 0.000000
0.000000 0.986410 0.000000
0.000000 0.982532 0.000000
0.000000 0.978634 0.000000
0.000000 0.974715 0.000000
0.000000 0.970775 0.000000
0.000000 0.966814 0.000000
0.000000 0.962832 0.000000
0.000000 0.958827 0.000000
0.000000 0.954800 0.000000
0.251982 0.950751 0.000000
0.396568 0.946678 0.000000
0.494821 0.942583 0.000000
0.573131 0.938463 0.000000
0.639714 0.934320 0.000000
0.698381 0.930152 0.000000
0.751262 0.925959 0.000000
0.799684 0.921741 0.000000
0.844541 0.917497 0.000000
0.886467 0.913228 0.000000
0.925929 0.908931 0.000000
0.963285 0.904608 0.000000
0.998815 0.900257 0.000000
1.000000 0.895879 0.000000
1.000000 0.891472 0.000000
1.000000 0.887036 0.000000
1.000000 0.882571 0.000000
1.000000 0.878075 0.000000
1.000000 0.873549 0.000000
1.000000 0.868992 0.000000
1.000000 0.864404 0.000000
1.000000 0.859783 0.000000
0.000000 1.000000 0.000000
0.000000 1.000000 0.000000
0.000000 1.000000 0.000000
0.000000 1.000000 0.000000
0.000000 0.997790 0.000000
0.000000 0.993971 0.000000
0.000000 0.990132 0.000000
0.000000 0.986274 0.000000
0.000000 0.982396 0.000000
0.000000 0.978497 0.000000
0.000000 0.974578 0.000000
0.134482 0.970637 0.000000
0.340703 0.966675 0.000000
0.453914 0.962692 0.000000
0.539695 0.958686 0.000000
0.610920 0.954659 0.000000
0.672814 0.950609 0.000000
0.728097 0.946535 0.000000
0.778393 0.942439 0.000000
0.824763 0.938318 0.000000
0.867940 0.934174 0.000000
0.908461 0.930005 0.000000
0.946725 0.925812 0.000000
0.983046 0.921593 0.000000
1.000000 0.917348 0.000000
1.000000 0.913078 0.000000
1.000000 0.908780 0.000000
1.000000 0.904456 0.000000
1.000000 0.900105 0.000000
1.000000 0.895725 0.000000
1.000000 0.891317 0.000000
1.000000 0.886880 0.000000
1.000000 0.882414 0.000000
0.000000 1.000000 0.000000
0.000000 1.000000 0.000000
0.000000 1.000000 0.000000
0.000000 1.000000 0.000000
0.000000 1.000000 0.000000
0.000000 1.000000 0.000000
0.000000 1.000000 0.000000
0.000000 1.000000 0.000000
0.000000 1.000000 0.000000
0.000000 0.997656 0.000000
0.000000 0.993837 0.000000
0.000000 0.989998 0.000000
0.270773 0.986139 0.000000
0.407792 0.982260 0.000000
0.503396 0.978360 0.000000
0.580269 0.974440 0.000000
0.645923 0.970499 0.000000
0.703930 0.966536 0.000000
0.756312 0.962552 0.000000
0.804341 0.958546 0.000000
0.848878 0.954517 0.000000
0.890537 0.950466 0.000000
0.929773 0.946392 0.000000
0.966934 0.942295 0.000000
1.000000 0.938174 0.000000
1.000000 0.934029 0.000000
1.000000 0.929859 0.000000
1.000000 0.925664 0.000000
1.000000 0.921445 0.000000
1.000000 0.917199 0.000000
1.000000 0.912928 0.000000
1.000000 0.908630 0.000000
1.000000 0.904304 0.000000
0.000000 1.000000 0.000000
0.000000 1.000000 0.000000
0.000000 1.000000 0.000000
0.000000 1.000000 0.000000
0.000000 1.000000 0.000000
0.000000 1.000000 0.000000
0.000000 1.000000 0.000000
0.000000 1.000000 0.000000
0.000000 1.000000 0.000000
0.000000 1.000000 0.000000
0.000000 1.000000 0.000000
0.000000 1.000000 0.000000
0.168601 1.000000 0.000000
0.354122 1.000000 0.000000
0.463449 0.997523 0.000000
0.547393 0.993703 0.000000
0.617505 0.989863 0.000000
0.678636 0.986003 0.000000
0.733356 0.982123 0.000000
0.783216 0.978223 0.000000
0.829236 0.974302 0.000000
0.872125 0.970360 0.000000
0.912402 0.966397 0.000000
0.950459 0.962412 0.000000
0.986598 0.958405 0.000000
1.000000 0.954376 0.000000
