app/luts/aces_ap0_to_srgb.cube
TITLE "ACES2065-1 (AP0 linear) -> sRGB display (no RRT)"
LUT_3D_SIZE 5
DOMAIN_MIN 0 0 0
DOMAIN_MAX 1 1 1
0.000000 0.000000 0.000000
0.815493 0.000000 0.000000
1.000000 0.000000 0.000000
1.000000 0.000000 0.000000
1.000000 0.000000 0.000000
0.000000 0.620647 0.000000
0.623680 0.560207 0.000000
0.989959 0.490042 0.000000
1.000000 0.404184 0.000000
1.000000 0.286432 0.000000
0.000000 0.846880 0.000000
0.279193 0.807862 0.000000
0.850929 0.766203 0.000000
1.000000 0.721352 0.000000
1.000000 0.672544 0.000000
0.000000 1.000000 0.000000
0.000000 0.982396 0.000000
0.672814 0.950609 0.000000
1.000000 0.917348 0.000000
1.000000 0.882414 0.000000
0.000000 1.000000 0.000000
0.000000 1.000000 0.000000
0.391094 1.000000 0.000000
0.884524 1.000000 0.000000
1.000000 1.000000 0.000000
0.000000 0.000000 0.576757
0.757025 0.000000 0.573279
1.000000 0.000000 0.569774
1.000000 0.000000 0.566241
1.000000 0.000000 0.562679
0.000000 0.600491 0.540876
0.537099 0.537099 0.537099
0.945477 0.462406 0.533288
1.000000 0.368355 0.529442
1.000000 0.228363 0.525560
0.000000 0.833570 0.501681
0.000000 0.793685 0.497524
0.795893 0.750987 0.493322
1.000000 0.704859 0.489074
1.000000 0.654435 0.484779
0.000000 1.000000 0.458183
0.000000 0.971487 0.453519
0.595531 0.939208 0.448793
0.974868 0.905390 0.444005
1.000000 0.869816 0.439151
0.000000 1.000000 0.408791
0.000000 1.000000 0.403407
0.189147 1.000000 0.397933
0.832421 1.000000 0.392364
1.000000 1.000000 0.386697
0.000000 0.000000 0.788294
0.691974 0.000000 0.785978
1.000000 0.000000 0.783652
1.000000 0.000000 0.781317
1.000000 0.000000 0.778973
0.000000 0.579427 0.764836
0.427694 0.512653 0.762426
0.898037 0.432532 0.760005
1.000000 0.327680 0.757575
1.000000 0.145458 0.755134
0.000000 0.819975 0.740399
0.000000 0.779169 0.737883
0.735357 0.735357 0.735357
1.000000 0.687850 0.732819
1.000000 0.635655 0.730270
0.000000 0.991788 0.714862
0.000000 0.960414 0.712229
0.502613 0.927621 0.709583
0.929419 0.893219 0.706924
1.000000 0.856974 0.704252
0.000000 1.000000 0.688080
0.000000 1.000000 0.685313
0.000000 1.000000 0.682531
0.775638 1.000000 0.679733
1.000000 1.000000 0.676921
0.000000 0.000000 0.943506
0.617829 0.000000 0.941678
0.986774 0.000000 0.939846
1.000000 0.000000 0.938009
1.000000 0.000000 0.936167
0.000000 0.557336 0.925111
0.262967 0.486637 0.923235
0.847036 0.399846 0.921354
1.000000 0.279817 0.919468
1.000000 0.000000 0.917577
0.000000 0.806078 0.906220
0.000000 0.764290 0.904292
0.667514 0.719282 0.902359
1.000000 0.670276 0.900420
1.000000 0.616131 0.898476
0.000000 0.981018 0.886795
0.000000 0.949169 0.884811
0.380453 0.915839 0.882821
0.880825 0.880825 0.880825
1.000000 0.843873 0.878823
0.000000 1.000000 0.866791
0.000000 1.000000 0.864747
0.000000 1.000000 0.862696
0.712823 1.000000 0.860638
1.000000 1.000000 0.858574
0.000000 0.000000 1.000000
0.530000 0.000000 1.000000
0.942091 0.000000 1.000000
1.000000 0.000000 1.000000
1.000000 0.000000 1.000000
0.000000 0.534069 1.000000
0.000000 0.458742 1.000000
0.791640 0.363488 1.000000
1.000000 0.219707 1.000000
1.000000 0.000000 1.000000
0.000000 0.791859 1.000000
0.000000 0.749023 1.000000
0.589319 0.702726 1.000000
0.971617 0.652086 1.000000
1.000000 0.595777 1.000000
0.000000 0.970088 1.000000
0.000000 0.937745 1.000000
0.162862 0.903854 1.000000
0.828413 0.868197 1.000000
1.000000 0.830500 1.000000
0.000000 1.000000 1.000000
0.000000 1.000000 1.000000
0.000000 1.000000 1.000000
0.641835 1.000000 1.000000
1.000000 1.000000 1.000000
