app/luts/aces_ap0_to_srgb.cube
TITLE "ACES2065-1 (AP0 linear) -> sRGB display (no RRT)"
LUT_3D_SIZE 9
DOMAIN_MIN 0 0 0
DOMAIN_MAX 1 1 1
0.000000 0.000000 0.000000
0.597133 0.000000 0.000000
0.815493 0.000000 0.000000
0.975711 0.000000 0.000000
1.000000 0.000000 0.000000
1.000000 0.000000 0.000000
1.000000 0.000000 0.000000
1.000000 0.000000 0.000000
1.000000 0.000000 0.000000
0.000000 0.451163 0.000000
0.453436 0.405885 0.000000
0.727835 0.353320 0.000000
0.908265 0.289000 0.000000
1.000000 0.200785 0.000000
1.000000 0.000000 0.000000
1.000000 0.000000 0.000000
1.000000 0.000000 0.000000
1.000000 0.000000 0.000000
0.000000 0.620647 0.000000
0.195362 0.591416 0.000000
0.623680 0.560207 0.000000
0.833459 0.526607 0.000000
0.989959 0.490042 0.000000
1.000000 0.449673 0.000000
1.000000 0.404184 0.000000
1.000000 0.351304 0.000000
1.000000 0.286432 0.000000
0.000000 0.745002 0.000000
0.000000 0.722169 0.000000
0.490244 0.698355 0.000000
0.748594 0.673438 0.000000
0.923903 0.647267 0.000000
1.000000 0.619653 0.000000
1.000000 0.590359 0.000000
1.000000 0.559074 0.000000
1.000000 0.525381 0.000000
0.000000 0.846880 0.000000
0.000000 0.827673 0.000000
0.279193 0.807862 0.000000
0.648847 0.787393 0.000000
0.850929 0.766203 0.000000
1.000000 0.744218 0.000000
1.000000 0.721352 0.000000
1.000000 0.697502 0.000000
1.000000 0.672544 0.000000
0.000000 0.934756 0.000000
0.000000 0.917944 0.000000
0.000000 0.900716 0.000000
0.523867 0.883041 0.000000
0.768627 0.864887 0.000000
0.939199 0.846218 0.000000
1.000000 0.826990 0.000000
1.000000 0.807157 0.000000
1.000000 0.786664 0.000000
0.000000 1.000000 0.000000
0.000000 0.997790 0.000000
0.000000 0.982396 0.000000
0.340703 0.966675 0.000000
0.672814 0.950609 0.000000
0.867940 0.934174 0.000000
1.000000 0.917348 0.000000
1.000000 0.900105 0.000000
1.000000 0.882414 0.000000
0.000000 1.000000 0.000000
0.000000 1.000000 0.000000
0.000000 1.000000 0.000000
0.000000 1.000000 0.000000
0.554955 1.000000 0.000000
0.788001 1.000000 0.000000
0.954173 0.997256 0.000000
1.000000 0.981851 0.000000
1.000000 0.966119 0.000000
0.000000 1.000000 0.000000
0.000000 1.000000 0.000000
0.000000 1.000000 0.000000
0.000000 1.000000 0.000000
0.391094 1.000000 0.000000
0.695724 1.000000 0.000000
0.884524 1.000000 0.000000
1.000000 1.000000 0.000000
1.000000 1.000000 0.000000
0.000000 0.000000 0.418283
0.553332 0.000000 0.415677
0.786970 0.000000 0.413051
0.953371 0.000000 0.410405
1.000000 0.000000 0.407737
1.000000 0.000000 0.405047
1.000000 0.000000 0.402335
1.000000 0.000000 0.399600
1.000000 0.000000 0.396842
0.000000 0.436063 0.391402
0.388573 0.388573 0.388573
0.694511 0.332617 0.385718
0.883638 0.262158 0.382837
1.000000 0.157282 0.379929
1.000000 0.000000 0.376993
1.000000 0.000000 0.374030
1.000000 0.000000 0.371037
1.000000 0.000000 0.368015
0.000000 0.610676 0.362040
0.000000 0.580796 0.358925
0.582449 0.548808 0.355777
0.805771 0.514251 0.352595
0.968056 0.476476 0.349378
1.000000 0.434508 0.346124
1.000000 0.386779 0.342833
1.000000 0.330447 0.339504
1.000000 0.259278 0.336134
0.000000 0.737159 0.329453
0.000000 0.713997 0.325958
0.432348 0.689814 0.322418
0.716529 0.664479 0.318831
0.899842 0.637829 0.315195
1.000000 0.609661 0.311509
1.000000 0.579714 0.307769
1.000000 0.547644 0.303975
1.000000 0.512988 0.300124
0.000000 0.840260 0.292451
0.000000 0.820848 0.288417
0.127903 0.800815 0.284316
0.609814 0.780102 0.280144
0.824014 0.758645 0.275899
0.982452 0.736364 0.271575
1.000000 0.713168 0.267170
1.000000 0.688947 0.262680
1.000000 0.663569 0.258098
0.000000 0.928950 0.248894
0.000000 0.911996 0.244014
0.000000 0.894616 0.239019
0.471212 0.876778 0.233902
0.737701 0.858449 0.228655
0.915670 0.839590 0.223269
1.000000 0.820158 0.217732
1.000000 0.800102 0.212034
1.000000 0.779364 0.206160
0.000000 1.000000 0.194155
0.000000 0.992467 0.187664
0.000000 0.976962 0.180920
0.239017 0.961123 0.173895
0.635687 0.944931 0.166554
0.841742 0.928363 0.158856
0.996573 0.911395 0.150749
1.000000 0.893999 0.142169
1.000000 0.876145 0.133030
0.000000 1.000000 0.113176
0.000000 1.000000 0.101572
0.000000 1.000000 0.088617
0.000000 1.000000 0.073777
0.506423 1.000000 0.056044
0.758110 1.000000 0.033327
0.931145 0.991930 0.008491
1.000000 0.976413 0.000000
1.000000 0.960562 0.000000
0.000000 1.000000 0.000000
0.000000 1.000000 0.000000
0.000000 1.000000 0.000000
0.000000 1.000000 0.000000
0.309960 1.000000 0.000000
0.660269 1.000000 0.000000
0.858992 1.000000 0.000000
1.000000 1.000000 0.000000
1.000000 1.000000 0.000000
0.000000 0.000000 0.576757
0.504598 0.000000 0.575021
0.757025 0.000000 0.573279
0.930317 0.000000 0.571530
1.000000 0.000000 0.569774
1.000000 0.000000 0.568011
1.000000 0.000000 0.566241
1.000000 0.000000 0.564464
1.000000 0.000000 0.562679
0.000000 0.420283 0.559183
0.306612 0.370259 0.557377
0.658971 0.310236 0.555564
0.858071 0.231686 0.553743
1.000000 0.095174 0.551915
1.000000 0.000000 0.550078
1.000000 0.000000 0.548234
1.000000 0.000000 0.546382
1.000000 0.000000 0.544522
0.000000 0.600491 0.540876
0.000000 0.569921 0.538991
0.537099 0.537099 0.537099
0.776777 0.501508 0.535198
0.945477 0.462406 0.533288
1.000000 0.418655 0.531369
1.000000 0.368355 0.529442
1.000000 0.307877 0.527505
1.000000 0.228363 0.525560
0.000000 0.729205 0.521745
0.000000 0.705701 0.519772
0.362737 0.681134 0.517790
0.682481 0.655361 0.515798
0.874901 0.628209 0.513796
1.000000 0.599454 0.511785
1.000000 0.568812 0.509763
1.000000 0.535903 0.507731
1.000000 0.500204 0.505689
0.000000 0.833570 0.501681
0.000000 0.813948 0.499608
0.000000 0.793685 0.497524
0.567276 0.772722 0.495428
0.795893 0.750987 0.493322
0.960321 0.728398 0.491204
1.000000 0.704859 0.489074
1.000000 0.680253 0.486933
1.000000 0.654435 0.484779
0.000000 0.923095 0.480551
0.000000 0.905996 0.478361
0.000000 0.888460 0.476159
0.409899 0.870456 0.473944
0.704987 0.851947 0.471716
0.891314 0.832894 0.469475
1.000000 0.813250 0.467220
1.000000 0.792964 0.464952
1.000000 0.771974 0.462669
0.000000 1.000000 0.458183
0.000000 0.987107 0.455858
0.000000 0.971487 0.453519
0.000000 0.955528 0.451164
0.595531 0.939208 0.448793
0.814425 0.922503 0.446407
0.974868 0.905390 0.444005
1.000000 0.887838 0.441586
1.000000 0.869816 0.439151
0.000000 1.000000 0.434360
0.000000 1.000000 0.431874
0.000000 1.000000 0.429370
0.000000 1.000000 0.426848
0.451163 1.000000 0.424308
0.726595 1.000000 0.421748
0.907338 0.986565 0.419169
1.000000 0.970934 0.416570
1.000000 0.954963 0.413951
0.000000 1.000000 0.408791
0.000000 1.000000 0.406110
0.000000 1.000000 0.403407
0.000000 1.000000 0.400681
0.189147 1.000000 0.397933
0.622166 1.000000 0.395160
0.832421 1.000000 0.392364
0.989132 1.000000 0.389543
1.000000 1.000000 0.386697
0.000000 0.000000 0.693034
0.449053 0.000000 0.691665
0.725449 0.000000 0.690292
0.906482 0.000000 0.688916
1.000000 0.000000 0.687536
1.000000 0.000000 0.686153
1.000000 0.000000 0.684765
1.000000 0.000000 0.683375
1.000000 0.000000 0.681980
0.000000 0.403734 0.679254
0.183206 0.350769 0.677848
0.620764 0.285750 0.676439
0.831461 0.195830 0.675026
0.988368 0.000000 0.673609
1.000000 0.000000 0.672189
1.000000 0.000000 0.670764
1.000000 0.000000 0.669336
1.000000 0.000000 0.667903
0.000000 0.590079 0.665102
0.000000 0.558774 0.663657
0.486274 0.525056 0.662209
0.746294 0.488343 0.660756
0.922160 0.447780 0.659300
1.000000 0.402022 0.657839
1.000000 0.348735 0.656374
1.000000 0.283147 0.654905
1.000000 0.191810 0.653431
0.000000 0.721136 0.650549
0.000000 0.697277 0.649062
0.271221 0.672308 0.647572
0.646077 0.646077 0.646077
0.848986 0.618394 0.644577
1.000000 0.589019 0.643073
1.000000 0.557637 0.641564
1.000000 0.523825 0.640051
1.000000 0.486994 0.638533
0.000000 0.826810 0.635563
0.000000 0.806971 0.634031
0.000000 0.786471 0.632495
0.520218 0.765247 0.630953
0.766406 0.743225 0.629407
0.937493 0.720318 0.627856
1.000000 0.696422 0.626300
1.000000 0.671411 0.624739
1.000000 0.645133 0.623173
0.000000 0.917191 0.620108
0.000000 0.899943 0.618527
0.000000 0.882248 0.616940
0.334445 0.864072 0.615348
0.670171 0.845379 0.613751
0.866047 0.826125 0.612149
1.000000 0.806264 0.610541
1.000000 0.785741 0.608928
1.000000 0.764490 0.607309
0.000000 0.997115 0.604141
0.000000 0.981707 0.602505
0.000000 0.965972 0.600864
0.000000 0.949889 0.599218
0.551566 0.933438 0.597565
0.785851 0.916594 0.595906
0.952502 0.899331 0.594242
1.000000 0.881620 0.592572
1.000000 0.863427 0.590895
0.000000 1.000000 0.587613
0.000000 1.000000 0.585918
0.000000 1.000000 0.584217
0.000000 1.000000 0.582510
0.385819 1.000000 0.580796
0.693193 0.996581 0.579076
0.882677 0.981162 0.577349
1.000000 0.965414 0.575615
1.000000 0.949319 0.573875
0.000000 1.000000 0.570467
0.000000 1.000000 0.568707
0.000000 1.000000 0.566939
0.000000 1.000000 0.565165
0.000000 1.000000 0.563384
0.580796 1.000000 0.561595
0.804686 1.000000 0.559799
0.967205 1.000000 0.557996
1.000000 1.000000 0.556185
0.000000 0.000000 0.788294
0.383254 0.000000 0.787137
0.691974 0.000000 0.785978
0.881789 0.000000 0.784816
1.000000 0.000000 0.783652
1.000000 0.000000 0.782485
1.000000 0.000000 0.781317
1.000000 0.000000 0.780146
1.000000 0.000000 0.778973
0.000000 0.386303 0.776681
0.000000 0.329872 0.775501
0.579264 0.258511 0.774319
0.803683 0.150798 0.773134
0.966418 0.000000 0.771947
1.000000 0.000000 0.770757
1.000000 0.000000 0.769565
1.000000 0.000000 0.768371
1.000000 0.000000 0.767174
0.000000 0.579427 0.764836
0.000000 0.547336 0.763632
0.427694 0.512653 0.762426
0.714094 0.474716 0.761217
0.898037 0.432532 0.760005
1.000000 0.384496 0.758791
1.000000 0.327680 0.757575
1.000000 0.255584 0.756355
1.000000 0.145458 0.755134
0.000000 0.712949 0.752747
0.000000 0.688718 0.751518
0.108212 0.663329 0.750286
0.606812 0.636616 0.749051
0.821986 0.608375 0.747814
0.980845 0.578342 0.746574
1.000000 0.546169 0.745331
1.000000 0.511384 0.744086
1.000000 0.473318 0.742837
0.000000 0.819975 0.740399
0.000000 0.799913 0.739142
0.000000 0.779169 0.737883
0.467037 0.757676 0.736622
0.735357 0.735357 0.735357
0.913906 0.712118 0.734090
1.000000 0.687850 0.732819
1.000000 0.662417 0.731546
1.000000 0.635655 0.730270
0.000000 0.911236 0.727776
0.000000 0.893836 0.726491
0.000000 0.875977 0.725204
0.229420 0.857626 0.723913
0.632842 0.838743 0.722619
0.839770 0.819284 0.721323
0.994996 0.799199 0.720023
1.000000 0.778430 0.718720
1.000000 0.756909 0.717414
0.000000 0.991788 0.714862
0.000000 0.976268 0.713547
0.000000 0.960414 0.712229
0.000000 0.944206 0.710907
0.502613 0.927621 0.709583
0.755848 0.910634 0.708255
0.929419 0.893219 0.706924
1.000000 0.875343 0.705589
1.000000 0.856974 0.704252
0.000000 1.000000 0.701637
0.000000 1.000000 0.700290
0.000000 1.000000 0.698939
0.000000 1.000000 0.697585
0.302936 1.000000 0.696227
0.657560 0.991250 0.694866
0.857072 0.975719 0.693501
1.000000 0.959853 0.692133
1.000000 0.943631 0.690762
0.000000 1.000000 0.688080
0.000000 1.000000 0.686698
0.000000 1.000000 0.685313
0.000000 1.000000 0.683923
0.000000 1.000000 0.682531
0.535264 1.000000 0.681134
0.775638 1.000000 0.679733
0.944598 1.000000 0.678329
1.000000 1.000000 0.676921
0.000000 0.000000 0.870462
0.299494 0.000000 0.869446
0.656255 0.000000 0.868428
0.856149 0.000000 0.867409
1.000000 0.000000 0.866389
1.000000 0.000000 0.865367
1.000000 0.000000 0.864343
1.000000 0.000000 0.863317
1.000000 0.000000 0.862290
0.000000 0.367851 0.860286
0.000000 0.307251 0.859254
0.533564 0.227476 0.858221
0.774586 0.084328 0.857186
0.943786 0.000000 0.856149
1.000000 0.000000 0.855111
1.000000 0.000000 0.854071
1.000000 0.000000 0.853029
1.000000 0.000000 0.851986
0.000000 0.568519 0.849949
0.000000 0.535586 0.848900
0.356945 0.499859 0.847850
0.679886 0.460579 0.846799
0.873027 0.416586 0.845745
1.000000 0.365931 0.844690
1.000000 0.304864 0.843633
1.000000 0.224082 0.842575
1.000000 0.074826 0.841514
0.000000 0.704637 0.839444
0.000000 0.680020 0.838378
0.000000 0.654190 0.837311
0.563980 0.626972 0.836242
0.793770 0.598140 0.835171
0.958665 0.567407 0.834098
1.000000 0.534386 0.833023
1.000000 0.498549 0.831947
1.000000 0.459127 0.830869
0.000000 0.813065 0.828763
0.000000 0.792773 0.827680
0.000000 0.771776 0.826594
0.404923 0.750005 0.825507
0.702499 0.727377 0.824417
0.889486 0.703794 0.823326
1.000000 0.679137 0.822233
1.000000 0.653262 0.821138
1.000000 0.625991 0.820041
0.000000 0.905229 0.817899
0.000000 0.887673 0.816796
0.000000 0.869647 0.815692
0.000000 0.851115 0.814585
0.592436 0.832037 0.813477
0.812366 0.812366 0.812366
0.973244 0.792050 0.811254
1.000000 0.771028 0.810139
1.000000 0.749228 0.809023
0.000000 0.986422 0.806842
0.000000 0.970788 0.805720
0.000000 0.954813 0.804595
0.000000 0.938477 0.803468
0.446752 0.921755 0.802340
0.724204 0.904622 0.801209
0.905552 0.887050 0.800076
1.000000 0.869007 0.798941
1.000000 0.850457 0.797804
0.000000 1.000000 0.795583
0.000000 1.000000 0.794439
0.000000 1.000000 0.793294
0.000000 1.000000 0.792146
0.176527 1.000000 0.790996
0.619240 0.985880 0.789844
0.830420 0.970235 0.788690
0.987540 0.954248 0.787533
1.000000 0.937898 0.786374
0.000000 1.000000 0.784111
0.000000 1.000000 0.782945
0.000000 1.000000 0.781778
0.000000 1.000000 0.780608
0.000000 1.000000 0.779436
0.484193 1.000000 0.778261
0.745094 1.000000 0.777084
0.921251 1.000000 0.775905
1.000000 1.000000 0.774723
0.000000 0.000000 0.943506
0.170112 0.000000 0.942593
0.617829 0.000000 0.941678
0.829457 0.000000 0.940762
0.986774 0.000000 0.939846
1.000000 0.000000 0.938928
1.000000 0.000000 0.938009
1.000000 0.000000 0.937088
1.000000 0.000000 0.936167
0.000000 0.348196 0.934368
0.000000 0.282455 0.933443
0.482262 0.190733 0.932517
0.743985 0.000000 0.931589
0.920412 0.000000 0.930661
1.000000 0.000000 0.929731
1.000000 0.000000 0.928799
1.000000 0.000000 0.927867
1.000000 0.000000 0.926933
0.000000 0.557336 0.925111
0.000000 0.523500 0.924174
0.262967 0.486637 0.923235
0.643290 0.445877 0.922295
0.847036 0.399846 0.921354
1.000000 0.346143 0.920412
1.000000 0.279817 0.919468
1.000000 0.186594 0.918523
1.000000 0.000000 0.917577
0.000000 0.696196 0.915730
0.000000 0.671174 0.914780
0.000000 0.644884 0.913829
0.516536 0.617132 0.912876
0.764176 0.587675 0.911922
0.935783 0.556195 0.910967
1.000000 0.522264 0.910010
1.000000 0.485282 0.909052
1.000000 0.444365 0.908093
0.000000 0.806078 0.906220
0.000000 0.785547 0.905257
0.000000 0.764290 0.904292
0.328044 0.742231 0.903326
0.667514 0.719282 0.902359
0.864148 0.695340 0.901390
1.000000 0.670276 0.900420
1.000000 0.643938 0.899449
1.000000 0.616131 0.898476
0.000000 0.899170 0.896577
0.000000 0.881454 0.895600
0.000000 0.863256 0.894621
0.000000 0.844539 0.893642
0.548149 0.825260 0.892660
0.783693 0.805370 0.891678
0.950828 0.784816 0.890694
1.000000 0.763532 0.889708
1.000000 0.741443 0.888721
0.000000 0.981018 0.886795
0.000000 0.965267 0.885803
0.000000 0.949169 0.884811
0.000000 0.932701 0.883816
0.380453 0.915839 0.882821
0.690650 0.898557 0.881824
0.880825 0.880825 0.880825
1.000000 0.862610 0.879825
1.000000 0.843873 0.878823
0.000000 1.000000 0.876868
0.000000 1.000000 0.875862
0.000000 1.000000 0.874854
0.000000 1.000000 0.873845
0.000000 0.995905 0.872835
0.577598 0.980472 0.871822
0.802594 0.964710 0.870809
0.965564 0.948599 0.869793
1.000000 0.932117 0.868776
0.000000 1.000000 0.866791
0.000000 1.000000 0.865770
0.000000 1.000000 0.864747
0.000000 1.000000 0.863722
0.000000 1.000000 0.862696
0.425249 1.000000 0.861668
0.712823 1.000000 0.860638
0.897096 1.000000 0.859607
1.000000 1.000000 0.858574
0.000000 0.000000 1.000000
0.000000 0.000000 1.000000
0.576056 0.000000 1.000000
0.801587 0.000000 1.000000
0.964775 0.000000 1.000000
1.000000 0.000000 1.000000
1.000000 0.000000 1.000000
1.000000 0.000000 1.000000
1.000000 0.000000 1.000000
0.000000 0.327099 1.000000
0.000000 0.254804 1.000000
0.422977 0.144014 0.999711
0.711648 0.000000 0.998865
0.896227 0.000000 0.998019
1.000000 0.000000 0.997171
1.000000 0.000000 0.996322
1.000000 0.000000 0.995473
1.000000 0.000000 0.994622
0.000000 0.545860 0.992963
0.000000 0.511049 0.992109
0.084459 0.472947 0.991255
0.603790 0.430545 0.990399
0.819952 0.382196 0.989543
0.979235 0.324885 0.988686
1.000000 0.251827 0.987827
1.000000 0.138409 0.986968
1.000000 0.000000 0.986108
0.000000 0.687620 0.984429
0.000000 0.662176 0.983566
0.000000 0.635400 0.982702
0.462814 0.607086 0.981836
0.733003 0.576966 0.980970
0.912137 0.544689 0.980103
1.000000 0.509775 0.979234
1.000000 0.471543 0.978365
1.000000 0.428965 0.977495
0.000000 0.799010 0.975797
0.000000 0.778234 0.974923
0.000000 0.756707 0.974049
0.219347 0.734349 0.973173
0.629980 0.711067 0.972297
0.837793 0.686750 0.971419
0.993416 0.661262 0.970540
1.000000 0.634436 0.969661
1.000000 0.606064 0.968780
0.000000 0.893056 0.967062
0.000000 0.875176 0.966178
0.000000 0.856802 0.965293
0.000000 0.837894 0.964407
0.498766 0.818408 0.963519
0.753577 0.798294 0.962631
0.927690 0.777493 0.961742
1.000000 0.755938 0.960852
1.000000 0.733550 0.959960
0.000000 0.975573 0.958221
0.000000 0.959704 0.957326
0.000000 0.943480 0.956430
0.000000 0.926877 0.955533
0.295713 0.909873 0.954635
0.654837 0.892437 0.953736
0.855147 0.874541 0.952836
1.000000 0.856149 0.951934
1.000000 0.837222 0.951032
0.000000 1.000000 0.949271
0.000000 1.000000 0.948365
0.000000 1.000000 0.947458
0.000000 1.000000 0.946549
0.000000 0.990569 0.945640
0.531714 0.975023 0.944729
0.773443 0.959142 0.943818
0.942905 0.942905 0.942905
1.000000 0.926289 0.941991
0.000000 1.000000 0.940207
0.000000 1.000000 0.939290
0.000000 1.000000 0.938371
0.000000 1.000000 0.937451
0.000000 1.000000 0.936530
0.353888 1.000000 0.935608
0.678532 1.000000 0.934684
0.872051 1.000000 0.933760
1.000000 1.000000 0.932834
0.000000 0.000000 1.000000
0.000000 0.000000 1.000000
0.530000 0.000000 1.000000
0.772386 0.000000 1.000000
0.942091 0.000000 1.000000
1.000000 0.000000 1.000000
1.000000 0.000000 1.000000
1.000000 0.000000 1.000000
1.000000 0.000000 1.000000
0.000000 0.304230 1.000000
0.000000 0.223176 1.000000
0.351037 0.072148 1.000000
0.677279 0.000000 1.000000
0.871148 0.000000 1.000000
1.000000 0.000000 1.000000
1.000000 0.000000 1.000000
1.000000 0.000000 1.000000
1.000000 0.000000 1.000000
0.000000 0.534069 1.000000
0.000000 0.498202 1.000000
0.000000 0.458742 1.000000
0.560660 0.414503 1.000000
0.791640 0.363488 1.000000
0.957005 0.301815 1.000000
1.000000 0.219707 1.000000
1.000000 0.061208 1.000000
1.000000 0.000000 1.000000
0.000000 0.678903 1.000000
0.000000 0.653016 1.000000
0.000000 0.625731 1.000000
0.399871 0.596822 1.000000
0.700000 0.565997 1.000000
0.887653 0.532864 1.000000
1.000000 0.496886 1.000000
1.000000 0.457282 1.000000
1.000000 0.412847 1.000000
0.000000 0.791859 1.000000
0.000000 0.770830 1.000000
0.000000 0.749023 1.000000
0.000000 0.726355 1.000000
0.589319 0.702726 1.000000
0.810300 0.678018 1.000000
0.971617 0.652086 1.000000
1.000000 0.624748 1.000000
1.000000 0.595777 1.000000
0.000000 0.886886 1.000000
0.000000 0.868838 1.000000
0.000000 0.850283 1.000000
0.000000 0.831179 1.000000
0.442286 0.811481 1.000000
0.721803 0.791135 1.000000
0.903762 0.770080 1.000000
1.000000 0.748244 1.000000
1.000000 0.725544 1.000000
0.000000 0.970088 1.000000
0.000000 0.954098 1.000000
0.000000 0.937745 1.000000
0.000000 0.921005 1.000000
0.162862 0.903854 1.000000
0.616297 0.886262 1.000000
0.828413 0.868197 1.000000
0.985944 0.849623 1.000000
1.000000 0.830500 1.000000
0.000000 1.000000 1.000000
0.000000 1.000000 1.000000
0.000000 1.000000 1.000000
0.000000 1.000000 1.000000
0.000000 0.985195 1.000000
0.480159 0.969534 1.000000
0.742780 0.953532 1.000000
0.919501 0.937165 1.000000
1.000000 0.920412 1.000000
0.000000 1.000000 1.000000
0.000000 1.000000 1.000000
0.000000 1.000000 1.000000
0.000000 1.000000 1.000000
0.000000 1.000000 1.000000
0.258553 1.000000 1.000000
0.641835 1.000000 1.000000
0.846020 1.000000 1.000000
1.000000 1.000000 1.000000
